X: 126
T:Hogmany Jig
% Nottingham Music Database
S:AA, via EF
M:6/8
K:D
d/2e/2|"D"fgf fgf|"D"e2d d2e|"D"fgf fed|"G"c2B B3|"A7"cdc cdc|
"A7"B2A A2A|"A7"Ace a2g|"D"g2f "A7"fde|"D"fgf fgf|"D"e2d d2e|
"D"fgf fed|"G"c2B B3|"A7"cdc cdc|"A7"B2A A2A|"A7"Ace a2c|
"D"d3 -d2e|"D"f2f "A/c+"e2e|"Bm"d2d "F#m/a"c2c|"G"B2B BAB|"A"c3 A2d|\
"A/e"g2g "D"f2f|
"A/c+"e2e "G/b"d2d|"A"c2c "E7"BcB|"A"A3 -A"A7"de|"D"f2f "A/c+"e2e|\
"Bm"d2d "F#m/a"c2c|
"G"B2B BAB|"A"c3 A2d|"A/e"g2g "D"f2f|"A/c+"e2e "G/b"d2d|"A"c2A "A7"ABc|\
"D"d3 -d2||


